assets/Sunset/Flat/sunset_flat.svg

<svg width="32" height="32" viewBox="0 0 32 32" fill="none" xmlns="http://www.w3.org/2000/svg">
<path d="M2 6C2 3.79086 3.79086 2 6 2H26C28.2091 2 30 3.79086 30 6V20L2 15V6Z" fill="#FF5E59"/>
<path d="M19.1094 4.34527C19.8847 3.5952 21.1152 3.5952 21.8906 4.34527L22.4972 4.9321C22.7189 5.14656 23.0271 5.24671 23.3325 5.20352L24.1682 5.08531C25.2364 4.93423 26.2319 5.6575 26.4182 6.72005L26.5641 7.55136C26.6174 7.85517 26.8079 8.11738 27.0803 8.26195L27.8259 8.65752C28.7788 9.16313 29.1591 10.3334 28.6853 11.3026L28.3147 12.0608C28.1792 12.3379 28.1792 12.6621 28.3147 12.9392L28.6853 13.6974C29.1591 14.6666 28.7788 15.8369 27.8259 16.3425L27.0803 16.7381C26.8079 16.8826 26.6174 17.1448 26.5641 17.4487L26.4182 18.28C26.2319 19.3425 25.2364 20.0658 24.1682 19.9147L23.3325 19.7965C23.0271 19.7533 22.7189 19.8535 22.4972 20.0679L21.8906 20.6547C21.1152 21.4048 19.8847 21.4048 19.1094 20.6547L18.5028 20.0679C18.2811 19.8535 17.9729 19.7533 17.6675 19.7965L16.8318 19.9147C15.7636 20.0658 14.7681 19.3425 14.5817 18.28L14.4359 17.4487C14.3826 17.1448 14.1921 16.8826 13.9197 16.7381L13.1741 16.3425C12.2211 15.8369 11.8409 14.6666 12.3147 13.6974L12.6853 12.9392C12.8208 12.6621 12.8208 12.3379 12.6853 12.0608L12.3147 11.3026C11.8409 10.3334 12.2211 9.16313 13.1741 8.65752L13.9197 8.26195C14.1921 8.11738 14.3826 7.85517 14.4359 7.55136L14.5817 6.72005C14.7681 5.6575 15.7636 4.93423 16.8318 5.08531L17.6675 5.20352C17.9729 5.24671 18.2811 5.14656 18.5028 4.9321L19.1094 4.34527Z" fill="#FF9F2E"/>
<path d="M27 12.5C27 16.0899 24.0899 19 20.5 19C16.9101 19 14 16.0899 14 12.5C14 8.91015 16.9101 6 20.5 6C24.0899 6 27 8.91015 27 12.5Z" fill="#FCD53F"/>
<path d="M6.97227 30H8.99726L13 29V9V8V7.25C13 6.55964 12.4404 6 11.75 6H10.25C9.55964 6 9 6.55964 9 7.25V8H5.25C4.55964 8 4 8.55964 4 9.25V28.4649C4 28.4649 6.45933 29.4724 6.97227 30ZM18 29L21.0033 30H22.9893C24.6111 30 26.5323 29.3139 28 28.4649V17.25C28 16.5596 27.4404 16 26.75 16H19.25C18.5596 16 18 16.5596 18 17.25V29Z" fill="#321B41"/>
<path d="M2 14V26C2 28.2091 3.79086 30 6 30H7V15.25C7 14.5596 6.44036 14 5.75 14H2ZM9 30H17H19H21V24.25C21 23.5596 20.4404 23 19.75 23H19V12.25C19 11.5596 18.4404 11 17.75 11H10.25C9.55964 11 9 11.5596 9 12.25V30ZM23 30H26C28.2091 30 30 28.2091 30 26V19H24.25C23.5596 19 23 19.5596 23 20.25V30Z" fill="#635994"/>
<path d="M11.5 13C11.2239 13 11 13.2239 11 13.5V14.5C11 14.7761 11.2239 15 11.5 15H12.5C12.7761 15 13 14.7761 13 14.5V13.5C13 13.2239 12.7761 13 12.5 13H11.5ZM3.5 20C3.22386 20 3 20.2239 3 20.5V21.5C3 21.7761 3.22386 22 3.5 22H4.5C4.77614 22 5 21.7761 5 21.5V20.5C5 20.2239 4.77614 20 4.5 20H3.5ZM11 17.5C11 17.2239 11.2239 17 11.5 17H12.5C12.7761 17 13 17.2239 13 17.5V18.5C13 18.7761 12.7761 19 12.5 19H11.5C11.2239 19 11 18.7761 11 18.5V17.5ZM11.5 25C11.2239 25 11 25.2239 11 25.5V26.5C11 26.7761 11.2239 27 11.5 27H12.5C12.7761 27 13 26.7761 13 26.5V25.5C13 25.2239 12.7761 25 12.5 25H11.5ZM15 17.5C15 17.2239 15.2239 17 15.5 17H16.5C16.7761 17 17 17.2239 17 17.5V18.5C17 18.7761 16.7761 19 16.5 19H15.5C15.2239 19 15 18.7761 15 18.5V17.5ZM15.5 21C15.2239 21 15 21.2239 15 21.5V22.5C15 22.7761 15.2239 23 15.5 23H16.5C16.7761 23 17 22.7761 17 22.5V21.5C17 21.2239 16.7761 21 16.5 21H15.5ZM24 22C24 21.4477 24.4477 21 25 21H30V23H25C24.4477 23 24 22.5523 24 22ZM25 25C24.4477 25 24 25.4477 24 26C24 26.5523 24.4477 27 25 27H30V25H25Z" fill="#FFF478"/>
<path d="M11.5 13C11.2239 13 11 13.2239 11 13.5H12C12.2761 13.5 12.5 13.7239 12.5 14V15C12.7761 15 13 14.7761 13 14.5V13.5C13 13.2239 12.7761 13 12.5 13H11.5Z" fill="#FCD53F"/>
<path d="M3.5 20C3.22386 20 3 20.2239 3 20.5H4C4.27614 20.5 4.5 20.7239 4.5 21V22C4.77614 22 5 21.7761 5 21.5V20.5C5 20.2239 4.77614 20 4.5 20H3.5Z" fill="#FCD53F"/>
<path d="M11 17.5C11 17.2239 11.2239 17 11.5 17H12.5C12.7761 17 13 17.2239 13 17.5V18.5C13 18.7761 12.7761 19 12.5 19V18C12.5 17.7239 12.2761 17.5 12 17.5H11Z" fill="#FCD53F"/>
<path d="M11.5 25C11.2239 25 11 25.2239 11 25.5H12C12.2761 25.5 12.5 25.7239 12.5 26V27C12.7761 27 13 26.7761 13 26.5V25.5C13 25.2239 12.7761 25 12.5 25H11.5Z" fill="#FCD53F"/>
<path d="M15 17.5C15 17.2239 15.2239 17 15.5 17H16.5C16.7761 17 17 17.2239 17 17.5V18.5C17 18.7761 16.7761 19 16.5 19V18C16.5 17.7239 16.2761 17.5 16 17.5H15Z" fill="#FCD53F"/>
<path d="M15.5 21C15.2239 21 15 21.2239 15 21.5H16C16.2761 21.5 16.5 21.7239 16.5 22V23C16.7761 23 17 22.7761 17 22.5V21.5C17 21.2239 16.7761 21 16.5 21H15.5Z" fill="#FCD53F"/>
<path d="M25 21C24.6299 21 24.3067 21.2011 24.1338 21.5H30V21H25Z" fill="#FCD53F"/>
<path d="M25 25C24.6299 25 24.3067 25.2011 24.1338 25.5H30V25H25Z" fill="#FCD53F"/>
<path d="M15 13.5C15 13.2239 15.2239 13 15.5 13H16.5C16.7761 13 17 13.2239 17 13.5V14.5C17 14.7761 16.7761 15 16.5 15H15.5C15.2239 15 15 14.7761 15 14.5V13.5ZM3 16.5C3 16.2239 3.22386 16 3.5 16H4.5C4.77614 16 5 16.2239 5 16.5V17.5C5 17.7761 4.77614 18 4.5 18H3.5C3.22386 18 3 17.7761 3 17.5V16.5ZM3 24.5C3 24.2239 3.22386 24 3.5 24H4.5C4.77614 24 5 24.2239 5 24.5V25.5C5 25.7761 4.77614 26 4.5 26H3.5C3.22386 26 3 25.7761 3 25.5V24.5ZM11.5 21C11.2239 21 11 21.2239 11 21.5V22.5C11 22.7761 11.2239 23 11.5 23H12.5C12.7761 23 13 22.7761 13 22.5V21.5C13 21.2239 12.7761 21 12.5 21H11.5ZM15.5 25C15.2239 25 15 25.2239 15 25.5V26.5C15 26.7761 15.2239 27 15.5 27H16.5C16.7761 27 17 26.7761 17 26.5V25.5C17 25.2239 16.7761 25 16.5 25H15.5Z" fill="#321B41"/>
<path d="M20.5 24V30H21V24C21 23.4477 20.5523 23 20 23H19V12C19 11.4477 18.5523 11 18 11H15L18 11.5C18.2761 11.5 18.5 11.7239 18.5 12V23.25C18.5 23.3881 18.6119 23.5 18.75 23.5H20C20.2761 23.5 20.5 23.7239 20.5 24Z" fill="#7167A4"/>
</svg>

<svg xmlns="http://www.w3.org/2000/svg" width="32" height="32" fill="none"><path fill="#FF5E59" d="M2 6a4 4 0 0 1 4-4h20a4 4 0 0 1 4 4v14L2 15V6Z"/><path fill="#FF9F2E" d="M19.11 4.345a2 2 0 0 1 2.78 0l.607.587a1 1 0 0 0 .835.272l.836-.119a2 2 0 0 1 2.25 1.635l.146.831a1 1 0 0 0 .516.711l.746.396a2 2 0 0 1 .86 2.645l-.371.758a1 1 0 0 0 0 .878l.37.758a2 2 0 0 1-.86 2.646l-.745.395a1 1 0 0 0-.516.71l-.146.832a2 2 0 0 1-2.25 1.635l-.835-.118a1 1 0 0 0-.836.27l-.606.588a2 2 0 0 1-2.782 0l-.606-.587a1 1 0 0 0-.835-.271l-.836.118a2 2 0 0 1-2.25-1.635l-.146-.831a1 1 0 0 0-.516-.71l-.746-.396a2 2 0 0 1-.86-2.646l.371-.758a1 1 0 0 0 0-.878l-.37-.758a2 2 0 0 1 .86-2.645l.745-.396a1 1 0 0 0 .516-.71l.146-.832a2 2 0 0 1 2.25-1.635l.835.119a1 1 0 0 0 .836-.272l.606-.587Z"/><path fill="#FCD53F" d="M27 12.5a6.5 6.5 0 1 1-13 0 6.5 6.5 0 0 1 13 0Z"/><path fill="#321B41" d="M6.972 30h2.025L13 29V7.25C13 6.56 12.44 6 11.75 6h-1.5C9.56 6 9 6.56 9 7.25V8H5.25C4.56 8 4 8.56 4 9.25v19.215S6.46 29.472 6.972 30ZM18 29l3.003 1h1.986c1.622 0 3.543-.686 5.011-1.535V17.25c0-.69-.56-1.25-1.25-1.25h-7.5c-.69 0-1.25.56-1.25 1.25V29Z"/><path fill="#635994" d="M2 14v12a4 4 0 0 0 4 4h1V15.25C7 14.56 6.44 14 5.75 14H2Zm7 16h12v-5.75c0-.69-.56-1.25-1.25-1.25H19V12.25c0-.69-.56-1.25-1.25-1.25h-7.5C9.56 11 9 11.56 9 12.25V30Zm14 0h3a4 4 0 0 0 4-4v-7h-5.75c-.69 0-1.25.56-1.25 1.25V30Z"/><path fill="#FFF478" d="M11.5 13a.5.5 0 0 0-.5.5v1a.5.5 0 0 0 .5.5h1a.5.5 0 0 0 .5-.5v-1a.5.5 0 0 0-.5-.5h-1Zm-8 7a.5.5 0 0 0-.5.5v1a.5.5 0 0 0 .5.5h1a.5.5 0 0 0 .5-.5v-1a.5.5 0 0 0-.5-.5h-1Zm7.5-2.5a.5.5 0 0 1 .5-.5h1a.5.5 0 0 1 .5.5v1a.5.5 0 0 1-.5.5h-1a.5.5 0 0 1-.5-.5v-1Zm.5 7.5a.5.5 0 0 0-.5.5v1a.5.5 0 0 0 .5.5h1a.5.5 0 0 0 .5-.5v-1a.5.5 0 0 0-.5-.5h-1Zm3.5-7.5a.5.5 0 0 1 .5-.5h1a.5.5 0 0 1 .5.5v1a.5.5 0 0 1-.5.5h-1a.5.5 0 0 1-.5-.5v-1Zm.5 3.5a.5.5 0 0 0-.5.5v1a.5.5 0 0 0 .5.5h1a.5.5 0 0 0 .5-.5v-1a.5.5 0 0 0-.5-.5h-1Zm8.5 1a1 1 0 0 1 1-1h5v2h-5a1 1 0 0 1-1-1Zm1 3a1 1 0 1 0 0 2h5v-2h-5Z"/><path fill="#FCD53F" d="M11.5 13a.5.5 0 0 0-.5.5h1a.5.5 0 0 1 .5.5v1a.5.5 0 0 0 .5-.5v-1a.5.5 0 0 0-.5-.5h-1ZM3.5 20a.5.5 0 0 0-.5.5h1a.5.5 0 0 1 .5.5v1a.5.5 0 0 0 .5-.5v-1a.5.5 0 0 0-.5-.5h-1ZM11 17.5a.5.5 0 0 1 .5-.5h1a.5.5 0 0 1 .5.5v1a.5.5 0 0 1-.5.5v-1a.5.5 0 0 0-.5-.5h-1ZM11.5 25a.5.5 0 0 0-.5.5h1a.5.5 0 0 1 .5.5v1a.5.5 0 0 0 .5-.5v-1a.5.5 0 0 0-.5-.5h-1ZM15 17.5a.5.5 0 0 1 .5-.5h1a.5.5 0 0 1 .5.5v1a.5.5 0 0 1-.5.5v-1a.5.5 0 0 0-.5-.5h-1ZM15.5 21a.5.5 0 0 0-.5.5h1a.5.5 0 0 1 .5.5v1a.5.5 0 0 0 .5-.5v-1a.5.5 0 0 0-.5-.5h-1ZM25 21a1 1 0 0 0-.866.5H30V21h-5ZM25 25a1 1 0 0 0-.866.5H30V25h-5Z"/><path fill="#321B41" d="M15 13.5a.5.5 0 0 1 .5-.5h1a.5.5 0 0 1 .5.5v1a.5.5 0 0 1-.5.5h-1a.5.5 0 0 1-.5-.5v-1Zm-12 3a.5.5 0 0 1 .5-.5h1a.5.5 0 0 1 .5.5v1a.5.5 0 0 1-.5.5h-1a.5.5 0 0 1-.5-.5v-1Zm0 8a.5.5 0 0 1 .5-.5h1a.5.5 0 0 1 .5.5v1a.5.5 0 0 1-.5.5h-1a.5.5 0 0 1-.5-.5v-1Zm8.5-3.5a.5.5 0 0 0-.5.5v1a.5.5 0 0 0 .5.5h1a.5.5 0 0 0 .5-.5v-1a.5.5 0 0 0-.5-.5h-1Zm4 4a.5.5 0 0 0-.5.5v1a.5.5 0 0 0 .5.5h1a.5.5 0 0 0 .5-.5v-1a.5.5 0 0 0-.5-.5h-1Z"/><path fill="#7167A4" d="M20.5 24v6h.5v-6a1 1 0 0 0-1-1h-1V12a1 1 0 0 0-1-1h-3l3 .5a.5.5 0 0 1 .5.5v11.25c0 .138.112.25.25.25H20a.5.5 0 0 1 .5.5Z"/></svg>
